docs/images/icons/chart.svg

<svg width="385.000000" height="180.000000" viewBox="0 0 385 180" fill="none" xmlns="http://www.w3.org/2000/svg" xmlns:xlink="http://www.w3.org/1999/xlink">
	<desc>
			Created with Pixso.
	</desc>
	<defs>
		<filter id="filter_410_2110_dd" x="0.000000" y="0.000000" width="385.000000" height="180.000000" filterUnits="userSpaceOnUse" color-interpolation-filters="sRGB">
			<feFlood flood-opacity="0" result="BackgroundImageFix"/>
			<feBlend mode="normal" in="SourceGraphic" in2="BackgroundImageFix" result="shape"/>
			<feColorMatrix in="SourceAlpha" type="matrix" values="0 0 0 0 0 0 0 0 0 0 0 0 0 0 0 0 0 0 127 0" result="hardAlpha"/>
			<feOffset dx="0" dy="4"/>
			<feGaussianBlur stdDeviation="3.33333"/>
			<feComposite in2="hardAlpha" operator="arithmetic" k2="-1" k3="1"/>
			<feColorMatrix type="matrix" values="0 0 0 0 1 0 0 0 0 1 0 0 0 0 1 0 0 0 0.1 0"/>
			<feBlend mode="normal" in2="shape" result="effect_innerShadow_1"/>
		</filter>
	</defs>
	<g filter="url(#filter_410_2110_dd)">
		<rect id="Rectangle 40" x="0.500000" y="0.500000" rx="10.000000" width="384.000000" height="179.000000" fill="#1E1E1E" fill-opacity="1.000000"/>
	</g>
	<rect id="Rectangle 40" x="0.500000" y="0.500000" rx="10.000000" width="384.000000" height="179.000000" stroke="#323232" stroke-opacity="1.000000" stroke-width="1.000000"/>
	<line id="Line 15" x1="30.000000" y1="149.500000" x2="355.000000" y2="149.500000" stroke="#323232" stroke-opacity="1.000000" stroke-width="1.000000"/>
	<line id="Line 16" x1="30.000000" y1="119.500000" x2="355.000000" y2="119.500000" stroke="#323232" stroke-opacity="1.000000" stroke-width="1.000000"/>
	<line id="Line 17" x1="30.000000" y1="89.500000" x2="355.000000" y2="89.500000" stroke="#323232" stroke-opacity="1.000000" stroke-width="1.000000"/>
	<line id="Line 18" x1="30.000000" y1="59.500000" x2="355.000000" y2="59.500000" stroke="#323232" stroke-opacity="1.000000" stroke-width="1.000000"/>
	<line id="Line 19" x1="30.000000" y1="29.500000" x2="355.000000" y2="29.500000" stroke="#323232" stroke-opacity="1.000000" stroke-width="1.000000"/>
	<path id="0" d="M34.4092 146.709C33.2972 146.709 32.4359 146.258 31.8252 145.355C31.2145 144.453 30.9092 143.182 30.9092 141.541C30.9092 139.914 31.2168 138.647 31.832 137.74C32.4473 136.833 33.3063 136.38 34.4092 136.38C35.5075 136.38 36.362 136.836 36.9727 137.747C37.5879 138.659 37.8955 139.93 37.8955 141.562C37.8955 143.198 37.5924 144.465 36.9863 145.362C36.3757 146.26 35.5166 146.709 34.4092 146.709ZM34.4092 145.636C35.1383 145.636 35.6943 145.285 36.0771 144.583C36.4645 143.877 36.6582 142.863 36.6582 141.541C36.6582 140.233 36.4645 139.226 36.0771 138.52C35.6852 137.813 35.1292 137.46 34.4092 137.46C33.6891 137.46 33.1309 137.815 32.7344 138.526C32.3424 139.233 32.1465 140.238 32.1465 141.541C32.1465 142.858 32.3424 143.87 32.7344 144.576C33.1217 145.283 33.68 145.636 34.4092 145.636Z" fill="#BDBDC0" fill-opacity="1.000000" fill-rule="evenodd"/>
	<path id="1" d="M33.4521 106.979L33.3428 106.979L30.834 108.798L30.834 107.499L33.459 105.612L34.6826 105.612L34.6826 115.477L33.4521 115.477L33.4521 106.979Z" fill="#BDBDC0" fill-opacity="1.000000" fill-rule="evenodd"/>
	<path id="2" d="M31.0322 79.3877C31.0322 78.5127 31.3307 77.7926 31.9277 77.2275C32.5202 76.6624 33.2744 76.3799 34.1904 76.3799C35.0745 76.3799 35.8174 76.6465 36.4189 77.1797C37.0159 77.7083 37.3145 78.3646 37.3145 79.1484C37.3145 79.6634 37.1686 80.167 36.877 80.6592C36.5853 81.1605 36.0361 81.8441 35.2295 82.71L32.8574 85.2598L32.8574 85.3691L37.4785 85.3691L37.4785 86.4766L31.0938 86.4766L31.0938 85.6289L34.5049 81.9033C35.1383 81.2152 35.5599 80.6911 35.7695 80.3311C35.9792 79.971 36.084 79.5928 36.084 79.1963C36.084 78.7041 35.8994 78.2894 35.5303 77.9521C35.1566 77.6195 34.6986 77.4531 34.1562 77.4531C33.5775 77.4531 33.1104 77.6309 32.7549 77.9863C32.3994 78.3418 32.2217 78.8089 32.2217 79.3877L32.2217 79.3945L31.0322 79.3945L31.0322 79.3877Z" fill="#BDBDC0" fill-opacity="1.000000" fill-rule="evenodd"/>
	<path id="3" d="M33.1104 50.8779L34.3066 50.8779C34.8672 50.8779 35.3275 50.7139 35.6875 50.3857C36.043 50.0576 36.2207 49.6383 36.2207 49.1279C36.2207 48.6266 36.0475 48.221 35.7012 47.9111C35.3548 47.6058 34.8968 47.4531 34.3271 47.4531C33.7575 47.4531 33.2972 47.6012 32.9463 47.8975C32.5954 48.1982 32.3949 48.613 32.3447 49.1416L31.1484 49.1416C31.2122 48.2848 31.5312 47.6104 32.1055 47.1182C32.6797 46.626 33.4362 46.3799 34.375 46.3799C35.2363 46.3799 35.9678 46.6305 36.5693 47.1318C37.1709 47.6331 37.4717 48.2438 37.4717 48.9639C37.4717 49.5518 37.319 50.0485 37.0137 50.4541C36.7083 50.8597 36.2845 51.1286 35.7422 51.2607L35.7422 51.3701C36.4121 51.4567 36.9385 51.7165 37.3213 52.1494C37.7041 52.5869 37.8955 53.1429 37.8955 53.8174C37.8955 54.6286 37.5605 55.3145 36.8906 55.875C36.2207 56.431 35.3981 56.709 34.4229 56.709C33.4202 56.709 32.6022 56.4538 31.9688 55.9434C31.3353 55.4284 30.9958 54.7493 30.9502 53.9062L32.1396 53.9062C32.1943 54.4303 32.4268 54.8496 32.8369 55.1641C33.2471 55.4785 33.7712 55.6357 34.4092 55.6357C35.0563 55.6357 35.5895 55.4626 36.0088 55.1162C36.4235 54.7699 36.6309 54.3255 36.6309 53.7832C36.6309 53.2135 36.4281 52.7624 36.0225 52.4297C35.6169 52.097 35.0632 51.9307 34.3613 51.9307L33.1104 51.9307L33.1104 50.8779Z" fill="#BDBDC0" fill-opacity="1.000000" fill-rule="evenodd"/>
	<path id="4" d="M35.5986 24.4326L30.793 24.4326L30.793 23.3115C31.6953 21.7074 33.1035 19.4743 35.0176 16.6123L36.8018 16.6123L36.8018 23.332L38.2031 23.332L38.2031 24.4326L36.8018 24.4326L36.8018 26.4766L35.5986 26.4766L35.5986 24.4326ZM32.0508 23.3389L35.6055 23.3389L35.6055 17.7539L35.5234 17.7539C34.457 19.3034 33.2995 21.1377 32.0508 23.2568L32.0508 23.3389Z" fill="#BDBDC0" fill-opacity="1.000000" fill-rule="evenodd"/>
	<rect id="Rectangle 95" x="50.000000" y="97.000000" rx="2.000000" width="10.000000" height="53.000000" fill="#3F94FF" fill-opacity="1.000000"/>
	<rect id="Rectangle 96" x="70.000000" y="73.000000" rx="2.000000" width="10.000000" height="77.000000" fill="#3F94FF" fill-opacity="1.000000"/>
	<rect id="Rectangle 97" x="90.000000" y="81.000000" rx="2.000000" width="10.000000" height="69.000000" fill="#3F94FF" fill-opacity="1.000000"/>
	<rect id="Rectangle 98" x="110.000000" y="45.000000" rx="2.000000" width="10.000000" height="105.000000" fill="#3F94FF" fill-opacity="1.000000"/>
	<rect id="Rectangle 99" x="130.000000" y="60.000000" rx="2.000000" width="10.000000" height="90.000000" fill="#3F94FF" fill-opacity="1.000000"/>
	<rect id="Rectangle 100" x="150.000000" y="104.000000" rx="2.000000" width="10.000000" height="46.000000" fill="#3F94FF" fill-opacity="1.000000"/>
	<rect id="Rectangle 101" x="170.000000" y="86.000000" rx="2.000000" width="10.000000" height="64.000000" fill="#3F94FF" fill-opacity="1.000000"/>
	<rect id="Rectangle 102" x="190.000000" y="130.000000" rx="2.000000" width="10.000000" height="20.000000" fill="#3F94FF" fill-opacity="1.000000"/>
	<rect id="Rectangle 103" x="210.000000" y="73.000000" rx="2.000000" width="10.000000" height="77.000000" fill="#3F94FF" fill-opacity="1.000000"/>
	<rect id="Rectangle 104" x="230.000000" y="88.000000" rx="2.000000" width="10.000000" height="62.000000" fill="#3F94FF" fill-opacity="1.000000"/>
	<rect id="Rectangle 105" x="250.000000" y="43.000000" rx="2.000000" width="10.000000" height="107.000000" fill="#3F94FF" fill-opacity="1.000000"/>
	<rect id="Rectangle 106" x="270.000000" y="32.000000" rx="2.000000" width="10.000000" height="118.000000" fill="#3F94FF" fill-opacity="1.000000"/>
	<rect id="Rectangle 107" x="290.000000" y="49.000000" rx="2.000000" width="10.000000" height="101.000000" fill="#3F94FF" fill-opacity="1.000000"/>
	<rect id="Rectangle 108" x="310.000000" y="64.000000" rx="2.000000" width="10.000000" height="86.000000" fill="#3F94FF" fill-opacity="1.000000"/>
	<rect id="Rectangle 109" x="330.000000" y="41.000000" rx="2.000000" width="10.000000" height="109.000000" fill="#3F94FF" fill-opacity="1.000000"/>
</svg>

<svg width="385" height="180" fill="none" xmlns="http://www.w3.org/2000/svg"><defs><filter id="a" x="0" y="0" width="385" height="180" filterUnits="userSpaceOnUse" color-interpolation-filters="sRGB"><feFlood flood-opacity="0" result="BackgroundImageFix"/><feBlend in="SourceGraphic" in2="BackgroundImageFix" result="shape"/><feColorMatrix in="SourceAlpha" values="0 0 0 0 0 0 0 0 0 0 0 0 0 0 0 0 0 0 127 0" result="hardAlpha"/><feOffset dy="4"/><feGaussianBlur stdDeviation="3.333"/><feComposite in2="hardAlpha" operator="arithmetic" k2="-1" k3="1"/><feColorMatrix values="0 0 0 0 1 0 0 0 0 1 0 0 0 0 1 0 0 0 0.1 0"/><feBlend in2="shape" result="effect_innerShadow_1"/></filter></defs><g filter="url(#a)"><rect x=".5" y=".5" rx="10" width="384" height="179" fill="#1E1E1E"/></g><rect x=".5" y=".5" rx="10" width="384" height="179" stroke="#323232"/><path stroke="#323232" d="M30 149.5h325m-325-30h325m-325-30h325m-325-30h325m-325-30h325"/><path d="M34.41 146.709c-1.113 0-1.974-.451-2.585-1.354-.61-.902-.916-2.173-.916-3.814 0-1.627.308-2.894.923-3.801s1.474-1.36 2.577-1.36c1.099 0 1.953.456 2.564 1.367.615.912.922 2.183.922 3.815 0 1.636-.303 2.903-.909 3.8-.61.898-1.47 1.347-2.577 1.347Zm0-1.073c.728 0 1.284-.351 1.667-1.053.388-.706.581-1.72.581-3.042 0-1.308-.194-2.315-.58-3.021-.393-.707-.949-1.06-1.669-1.06-.72 0-1.278.355-1.675 1.066-.392.707-.587 1.712-.587 3.015 0 1.317.195 2.329.587 3.035.388.707.946 1.06 1.675 1.06Zm-.958-38.657h-.11l-2.508 1.819v-1.299l2.625-1.887h1.224v9.865h-1.23v-8.498Zm-2.42-27.591c0-.875.299-1.595.896-2.16.592-.566 1.346-.848 2.262-.848.885 0 1.627.267 2.229.8.597.528.896 1.185.896 1.968 0 .515-.146 1.019-.438 1.511-.292.501-.84 1.185-1.648 2.051l-2.372 2.55v.11h4.621v1.107h-6.384v-.848l3.41-3.726c.634-.688 1.056-1.212 1.266-1.572.21-.36.314-.738.314-1.135a1.62 1.62 0 0 0-.554-1.244c-.373-.332-.831-.499-1.374-.499-.578 0-1.046.178-1.401.533-.356.356-.533.823-.533 1.402v.006h-1.19v-.006Zm2.078-28.51h1.197c.56 0 1.02-.164 1.38-.492.356-.328.534-.748.534-1.258 0-.501-.173-.907-.52-1.217-.346-.305-.804-.458-1.374-.458-.57 0-1.03.148-1.38.444-.352.301-.552.716-.602 1.245h-1.197c.064-.857.383-1.532.957-2.024.575-.492 1.331-.738 2.27-.738.861 0 1.593.25 2.194.752.602.501.903 1.112.903 1.832 0 .588-.153 1.084-.458 1.49-.306.406-.73.675-1.272.807v.11c.67.086 1.197.346 1.58.778.382.438.573.994.573 1.668 0 .812-.335 1.498-1.004 2.058-.67.556-1.493.834-2.468.834-1.003 0-1.82-.255-2.454-.766-.634-.515-.973-1.194-1.019-2.037h1.19c.054.524.287.944.697 1.258.41.314.934.472 1.572.472.647 0 1.18-.173 1.6-.52a1.66 1.66 0 0 0 .622-1.333c0-.57-.203-1.02-.608-1.353-.406-.333-.96-.5-1.662-.5h-1.25v-1.052Zm2.489-26.445h-4.806V23.31c.902-1.604 2.31-3.837 4.225-6.699h1.784v6.72h1.401v1.1h-1.401v2.045h-1.203v-2.044Zm-3.548-1.094h3.554v-5.585h-.082c-1.066 1.55-2.224 3.384-3.472 5.503v.082Z" fill="#BDBDC0" fill-rule="evenodd"/><rect x="50" y="97" rx="2" width="10" height="53" fill="#3F94FF"/><rect x="70" y="73" rx="2" width="10" height="77" fill="#3F94FF"/><rect x="90" y="81" rx="2" width="10" height="69" fill="#3F94FF"/><rect x="110" y="45" rx="2" width="10" height="105" fill="#3F94FF"/><rect x="130" y="60" rx="2" width="10" height="90" fill="#3F94FF"/><rect x="150" y="104" rx="2" width="10" height="46" fill="#3F94FF"/><rect x="170" y="86" rx="2" width="10" height="64" fill="#3F94FF"/><rect x="190" y="130" rx="2" width="10" height="20" fill="#3F94FF"/><rect x="210" y="73" rx="2" width="10" height="77" fill="#3F94FF"/><rect x="230" y="88" rx="2" width="10" height="62" fill="#3F94FF"/><rect x="250" y="43" rx="2" width="10" height="107" fill="#3F94FF"/><rect x="270" y="32" rx="2" width="10" height="118" fill="#3F94FF"/><rect x="290" y="49" rx="2" width="10" height="101" fill="#3F94FF"/><rect x="310" y="64" rx="2" width="10" height="86" fill="#3F94FF"/><rect x="330" y="41" rx="2" width="10" height="109" fill="#3F94FF"/></svg>
